assets/dude/Did–June.svg

<svg width="231" height="115" viewBox="0 0 231 115" fill="none" xmlns="http://www.w3.org/2000/svg">
<path d="M57.2304 8.01988H54.5704C46.4504 8.01988 39.5904 12.3599 37.9104 13.4799C37.4904 13.7599 37.2104 13.8999 36.9304 13.8999C36.6504 13.8999 36.5104 13.6199 36.5104 13.4799C36.5104 6.47988 30.6304 0.879883 23.6304 0.879883C16.6304 0.879883 10.7504 6.47988 10.7504 13.4799C10.7504 13.6199 10.6104 13.8999 10.3304 13.8999C10.0504 13.8999 9.63035 13.6199 9.35035 13.4799C6.55035 12.0799 4.17035 11.5199 1.37035 11.5199C0.670351 11.5199 0.110352 12.0799 0.110352 12.7799C0.110352 14.5999 2.21035 17.3999 2.21035 42.7399C2.21035 43.4399 2.77035 43.9999 3.47035 43.9999H17.3304C18.0304 43.9999 18.5904 44.5599 18.5904 45.2599V70.4599C18.5904 71.1599 18.0304 71.7199 17.3304 71.7199H3.47035C2.77035 71.7199 2.21035 72.2799 2.21035 72.9799C2.21035 98.3199 0.110352 101.12 0.110352 102.94C0.110352 103.64 0.670351 104.2 1.37035 104.2C4.17035 104.2 6.55035 103.64 9.35035 102.24C9.63035 102.1 10.0504 101.82 10.3304 101.82C10.6104 101.82 10.7504 102.1 10.7504 102.24C10.7504 109.24 16.6304 114.84 23.6304 114.84C30.6304 114.84 36.5104 109.24 36.5104 102.24C36.5104 102.1 36.6504 101.82 36.9304 101.82C37.2104 101.82 37.4904 101.96 37.9104 102.24C39.5904 103.36 46.4504 107.7 54.5704 107.7H57.2304C74.7304 107.7 86.0704 94.6799 86.0704 76.7599V38.9599C86.0704 21.0399 74.7304 8.01988 57.2304 8.01988ZM29.9304 71.7199C29.2304 71.7199 28.6704 71.1599 28.6704 70.4599V45.2599C28.6704 44.5599 29.2304 43.9999 29.9304 43.9999H67.1703C72.0704 43.9999 75.9903 47.9199 75.9903 52.8199V62.8999C75.9903 67.7999 72.0704 71.7199 67.1703 71.7199H29.9304Z" fill="#FF1C31"/>
<path d="M135.665 71.7199H121.805C121.105 71.7199 120.545 71.1599 120.545 70.4599V45.2599C120.545 44.5599 121.105 43.9999 121.805 43.9999H135.665C136.365 43.9999 136.925 43.4399 136.925 42.7399C136.925 17.3999 139.025 14.5999 139.025 12.7799C139.025 12.0799 138.465 11.5199 137.765 11.5199C134.965 11.5199 132.585 12.0799 129.785 13.4799C129.505 13.6199 129.085 13.8999 128.805 13.8999C128.525 13.8999 128.385 13.6199 128.385 13.4799C128.385 6.47988 122.505 0.879883 115.505 0.879883C108.505 0.879883 102.625 6.47988 102.625 13.4799C102.625 13.6199 102.485 13.8999 102.205 13.8999C101.925 13.8999 101.505 13.6199 101.225 13.4799C98.4253 12.0799 96.0453 11.5199 93.2453 11.5199C92.5453 11.5199 91.9854 12.0799 91.9854 12.7799C91.9854 14.5999 94.0854 17.3999 94.0854 42.7399C94.0854 43.4399 94.6454 43.9999 95.3454 43.9999H109.205C109.905 43.9999 110.465 44.5599 110.465 45.2599V70.4599C110.465 71.1599 109.905 71.7199 109.205 71.7199H95.3454C94.6454 71.7199 94.0854 72.2799 94.0854 72.9799C94.0854 98.3199 91.9854 101.12 91.9854 102.94C91.9854 103.64 92.5453 104.2 93.2453 104.2C96.0453 104.2 98.4253 103.64 101.225 102.24C101.505 102.1 101.925 101.82 102.205 101.82C102.485 101.82 102.625 102.1 102.625 102.24C102.625 109.24 108.505 114.84 115.505 114.84C122.505 114.84 128.385 109.24 128.385 102.24C128.385 102.1 128.525 101.82 128.805 101.82C129.085 101.82 129.505 102.1 129.785 102.24C132.585 103.64 134.965 104.2 137.765 104.2C138.465 104.2 139.025 103.64 139.025 102.94C139.025 101.12 136.925 98.3199 136.925 72.9799C136.925 72.2799 136.365 71.7199 135.665 71.7199Z" fill="#FF1C31"/>
<path d="M202.016 8.01988H199.356C191.236 8.01988 184.376 12.3599 182.696 13.4799C182.276 13.7599 181.996 13.8999 181.715 13.8999C181.435 13.8999 181.296 13.6199 181.296 13.4799C181.296 6.47988 175.416 0.879883 168.416 0.879883C161.416 0.879883 155.536 6.47988 155.536 13.4799C155.536 13.6199 155.396 13.8999 155.116 13.8999C154.836 13.8999 154.416 13.6199 154.136 13.4799C151.336 12.0799 148.956 11.5199 146.156 11.5199C145.456 11.5199 144.896 12.0799 144.896 12.7799C144.896 14.5999 146.995 17.3999 146.995 42.7399C146.995 43.4399 147.556 43.9999 148.256 43.9999H162.116C162.816 43.9999 163.376 44.5599 163.376 45.2599V70.4599C163.376 71.1599 162.816 71.7199 162.116 71.7199H148.256C147.556 71.7199 146.995 72.2799 146.995 72.9799C146.995 98.3199 144.896 101.12 144.896 102.94C144.896 103.64 145.456 104.2 146.156 104.2C148.956 104.2 151.336 103.64 154.136 102.24C154.416 102.1 154.836 101.82 155.116 101.82C155.396 101.82 155.536 102.1 155.536 102.24C155.536 109.24 161.416 114.84 168.416 114.84C175.416 114.84 181.296 109.24 181.296 102.24C181.296 102.1 181.435 101.82 181.715 101.82C181.996 101.82 182.276 101.96 182.696 102.24C184.376 103.36 191.236 107.7 199.356 107.7H202.016C219.516 107.7 230.856 94.6799 230.856 76.7599V38.9599C230.856 21.0399 219.516 8.01988 202.016 8.01988ZM174.715 71.7199C174.016 71.7199 173.456 71.1599 173.456 70.4599V45.2599C173.456 44.5599 174.016 43.9999 174.715 43.9999H211.956C216.856 43.9999 220.776 47.9199 220.776 52.8199V62.8999C220.776 67.7999 216.856 71.7199 211.956 71.7199H174.715Z" fill="#FF1C31"/>
</svg>

<svg xmlns="http://www.w3.org/2000/svg" fill="none" viewBox="0 0 231 115"><path fill="#FF1C31" d="M57.23 8.02h-2.66c-8.12 0-14.98 4.34-16.66 5.46-.42.28-.7.42-.98.42s-.42-.28-.42-.42c0-7-5.88-12.6-12.88-12.6-7 0-12.88 5.6-12.88 12.6 0 .14-.14.42-.42.42-.28 0-.7-.28-.98-.42-2.8-1.4-5.18-1.96-7.98-1.96-.7 0-1.26.56-1.26 1.26 0 1.82 2.1 4.62 2.1 29.96 0 .7.56 1.26 1.26 1.26h13.86c.7 0 1.26.56 1.26 1.26v25.2c0 .7-.56 1.26-1.26 1.26H3.47c-.7 0-1.26.56-1.26 1.26 0 25.34-2.1 28.14-2.1 29.96 0 .7.56 1.26 1.26 1.26 2.8 0 5.18-.56 7.98-1.96.28-.14.7-.42.98-.42s.42.28.42.42c0 7 5.88 12.6 12.88 12.6 7 0 12.88-5.6 12.88-12.6 0-.14.14-.42.42-.42.28 0 .56.14.98.42 1.68 1.12 8.54 5.46 16.66 5.46h2.66c17.5 0 28.84-13.02 28.84-30.94v-37.8c0-17.92-11.34-30.94-28.84-30.94zm-27.3 63.7c-.7 0-1.26-.56-1.26-1.26v-25.2c0-.7.56-1.26 1.26-1.26h37.24c4.9 0 8.82 3.92 8.82 8.82V62.9c0 4.9-3.92 8.82-8.82 8.82H29.93zM135.665 71.72h-13.86c-.7 0-1.26-.56-1.26-1.26v-25.2c0-.7.56-1.26 1.26-1.26h13.86c.7 0 1.26-.56 1.26-1.26 0-25.34 2.1-28.14 2.1-29.96 0-.7-.56-1.26-1.26-1.26-2.8 0-5.18.56-7.98 1.96-.28.14-.7.42-.98.42s-.42-.28-.42-.42c0-7-5.88-12.6-12.88-12.6-7 0-12.88 5.6-12.88 12.6 0 .14-.14.42-.42.42-.28 0-.7-.28-.98-.42-2.8-1.4-5.18-1.96-7.98-1.96-.7 0-1.26.56-1.26 1.26 0 1.82 2.1 4.62 2.1 29.96 0 .7.56 1.26 1.26 1.26h13.86c.7 0 1.26.56 1.26 1.26v25.2c0 .7-.56 1.26-1.26 1.26h-13.86c-.7 0-1.26.56-1.26 1.26 0 25.34-2.1 28.14-2.1 29.96 0 .7.56 1.26 1.26 1.26 2.8 0 5.18-.56 7.98-1.96.28-.14.7-.42.98-.42s.42.28.42.42c0 7 5.88 12.6 12.88 12.6 7 0 12.88-5.6 12.88-12.6 0-.14.14-.42.42-.42.28 0 .7.28.98.42 2.8 1.4 5.18 1.96 7.98 1.96.7 0 1.26-.56 1.26-1.26 0-1.82-2.1-4.62-2.1-29.96 0-.7-.56-1.26-1.26-1.26zM202.016 8.02h-2.66c-8.12 0-14.98 4.34-16.66 5.46-.42.28-.7.42-.981.42-.28 0-.419-.28-.419-.42 0-7-5.88-12.6-12.88-12.6-7 0-12.88 5.6-12.88 12.6 0 .14-.14.42-.42.42-.28 0-.7-.28-.98-.42-2.8-1.4-5.18-1.96-7.98-1.96-.7 0-1.26.56-1.26 1.26 0 1.82 2.099 4.62 2.099 29.96 0 .7.561 1.26 1.261 1.26h13.86c.7 0 1.26.56 1.26 1.26v25.2c0 .7-.56 1.26-1.26 1.26h-13.86c-.7 0-1.261.56-1.261 1.26 0 25.34-2.099 28.14-2.099 29.96 0 .7.56 1.26 1.26 1.26 2.8 0 5.18-.56 7.98-1.96.28-.14.7-.42.98-.42s.42.28.42.42c0 7 5.88 12.6 12.88 12.6 7 0 12.88-5.6 12.88-12.6 0-.14.139-.42.419-.42.281 0 .561.14.981.42 1.68 1.12 8.54 5.46 16.66 5.46h2.66c17.5 0 28.84-13.02 28.84-30.94v-37.8c0-17.92-11.34-30.94-28.84-30.94zm-27.301 63.7c-.699 0-1.259-.56-1.259-1.26v-25.2c0-.7.56-1.26 1.259-1.26h37.241c4.9 0 8.82 3.92 8.82 8.82V62.9c0 4.9-3.92 8.82-8.82 8.82h-37.241z"/></svg>
